X: 112
T:Missa Rosina / Gloria
N: Derived from Jos0904b-Missa_Rosina-Gloria.krn
C: Josquin des Prez
%%abc-version 2.0
%%abcx-abcm2ps-target-version 5.9.1 (29 Sep 2008)
%%abc-creator hum2abc beta
%%abcx-conversion-date 2019/02/12 16:15:43
%%abc-edited-by Jesse Rodin
%%abc-edited-by Jesse Rodin (May 2013
%%abcx-initial-encoding-date 2013/05/10/
%%humdrum-veritas 4100593935
%%humdrum-veritas-data 1589620433
%%linebreak <none>
%%barnumbers 0
L: 1/4
M: 3/1
Q: 1/2=120
K: C clef=treble-8
Z2 | 
E6-E6G6 | 
G6A6c6 | 
B6-B6-B6 | 
A6-A6-A6 | 
[M:4/2]z4G4 | 
c6d2 | 
!fermata!e8 | 
[M:3/1]z12 | 
A6-A6 | 
E6C6 | 
Z3 | 
c4B2A2- | 
A2G2F4 | 
E8 ||  
 [K:C] [K:clef=treble-8][M:4/2]z4 :
C4 | 
E4 :
A4 | 
G4 | 
[M:3/1]z2c4B6 | 
e6d6 | 
[M:4/2]z2c2 :
B4 | 
A4 :
d4 | 
c2B2- :
B2G2 | 
A4 :
G4- | 
G4 | 
[M:3/2]z6 :
c6 :
B6 :
c6 :
!fermata!G6 :
[M:4/2]z2 :
F2 :
G2- :
G2 :
A2- :
A2 :
E2 :
[M:2/1]z2D2 :
E4 :
F4 :
C4 :
D4 :
[M:4/2]E4D2A2- :
A2G2F4 :
E8 |]  



